svg/color/nvoon.svg

<svg width="40" height="40" viewBox="0 0 40 40" fill="none" xmlns="http://www.w3.org/2000/svg">
<g clip-path="url(#clip0_819_3613)">
<path d="M20 0C31.0457 0 40 8.9543 40 20C40 31.0457 31.0457 40 20 40C8.95431 40 7.90517e-06 31.0457 0 20C6.58765e-07 8.95431 8.95431 1.97595e-06 20 0Z" fill="#CCD1E0"/>
<path d="M26 6C30.4183 6 34 9.58172 34 14V26C34 30.4183 30.4183 34 26 34H14C9.58172 34 6 30.4183 6 26V14C6 9.58172 9.58172 6 14 6H26Z" fill="#001965"/>
<path d="M11.7679 13.9547C11.7679 13.4898 11.9316 13.5133 12.0463 13.8305C12.1626 14.1482 12.6689 15.4076 13.976 15.8728C15.2833 16.3379 16.4512 15.958 17.2728 15.2787C17.5765 15.0277 17.6814 15.1716 17.4065 15.619C17.0473 16.2034 16.4561 16.5457 15.777 16.9144C15.6344 16.9919 15.4784 17.0527 15.792 17.1983C17.6035 18.0397 19.959 18.6319 22.065 18.6319C23.6173 18.6319 25.1331 18.3936 25.9314 18.3324C26.7072 18.273 28.1608 18.3252 28.5183 20.0063C28.7718 21.1977 28.7507 24.6803 28.7507 28.0506C28.7507 28.2802 28.7635 28.4269 28.4894 28.4241C27.6322 28.415 27.5954 28.451 27.516 28.6747C27.3879 29.0352 27.3522 29.2165 27.2558 29.5862C27.177 29.8883 27.1188 29.9979 26.917 29.9979H25.8333C25.6687 29.9979 25.5786 29.795 25.7227 29.536C27.1026 27.0462 27.0033 25.1099 26.1889 24.0524C25.9296 25.0286 25.8184 25.4609 25.6889 25.5584C24.0153 26.8172 23.1684 29.5122 23.089 29.7197C23.0099 29.9269 22.9068 29.9987 22.6504 29.9987C22.4781 29.9987 21.6216 30 21.4544 30C21.119 30 21.1301 29.7448 21.3435 29.518C23.2053 27.5391 23.6767 26.7887 24.2196 25.1111C24.7681 23.4166 23.4842 22.8824 22.4963 23.7604C19.9415 22.5974 19.2626 24.1121 19.4138 24.9634C19.653 26.3103 20.5567 28.5929 20.6162 29.6765C20.6308 29.9418 20.3943 29.9987 20.2498 29.9987H19.1106C18.7572 29.9987 18.896 29.664 18.9271 29.5148C19.5032 26.7464 18.3263 25.159 17.1406 24.4212C16.4332 24.9395 15.4978 27.9734 15.3861 29.6229C15.3733 29.8124 15.2761 29.9979 15.0995 29.9979C14.9515 29.9979 14.0314 30.0006 13.7858 29.9979C13.5705 29.9961 13.538 29.7591 13.698 29.4716C14.3725 28.2608 15.4341 26.3505 15.4134 24.3317C15.4121 24.0975 15.4134 23.4036 15.0904 23.0192C14.3671 22.1538 13.9611 21.1142 13.5897 20.4473C13.333 19.9877 13.006 19.8351 12.7458 19.7871C12.4816 19.7383 12.2692 19.8168 12.0424 19.7106C11.8157 19.6044 11.6971 19.3685 11.5111 19.1639C11.3569 18.9927 11.2452 18.7484 11.4282 18.5165C11.7491 18.1118 11.9605 17.878 12.0172 17.7134C12.0738 17.5488 12.0608 17.4721 12.0719 17.3329C12.0825 17.2 12.3635 16.8689 12.6188 16.5593C12.7148 16.4427 12.6344 16.243 12.4607 16.0412C12.2875 15.8384 11.7679 15.1277 11.7679 13.9547ZM27.8451 21.56C27.7908 21.5026 27.7015 21.5 27.6953 21.5788C27.6249 22.4934 27.4315 23.5952 27.4945 23.9561C27.562 24.3415 27.7704 25.2582 27.8156 25.6606C27.851 25.9737 27.9973 25.8504 28.017 25.6994C28.098 25.0762 28.2348 21.9706 27.8451 21.56ZM17.2845 18.3623C16.6285 18.1136 16.5989 18.0933 16.4357 18.314C15.2599 19.9045 15.0264 20.7763 15.1297 21.4243C15.2331 22.0723 15.7889 22.735 16.6207 23.2194C17.4523 23.7036 17.9658 23.9761 18.5299 24.5878C18.588 24.6508 18.6671 24.6768 18.6882 24.5404C18.9782 22.6657 20.557 22.3943 22.6119 22.4312C25.505 22.4832 26.059 23.4336 26.4149 23.2762C26.771 23.1186 27.0006 21.6557 27.0638 20.6206C27.1271 19.5855 27.1962 18.7393 25.912 18.8556C26.2153 19.4786 26.2787 20.1644 25.7116 20.5543C25.1445 20.9441 24.7409 20.7551 24.7409 20.3898C24.7409 20.0533 24.6841 19.5384 24.2769 19.0588C24.082 19.0849 23.9146 19.103 23.7186 19.1214C23.8376 19.6835 23.9873 20.7176 23.5537 21.1406C23.1199 21.5638 21.9086 21.6048 20.6559 21.5057C20.416 21.4868 20.1208 21.39 19.993 21.097C19.9281 20.9479 19.8351 20.5843 19.8039 18.9928C19.5887 18.9584 19.419 18.9275 19.2055 18.884C18.9773 20.4189 18.4596 20.992 17.9154 21.1203C17.3711 21.2486 16.7516 21.1282 16.8632 20.5714C16.973 20.0225 17.2342 19.4249 17.2845 18.3623ZM20.2605 19.0598C20.283 19.5368 20.2999 20.2534 20.3724 20.6466C20.433 20.977 20.5728 21.0003 20.694 21.0186C21.1649 21.0897 22.7999 21.1638 23.1608 20.797C23.3897 20.5646 23.41 19.7664 23.2479 19.159C22.252 19.2227 21.25 19.1894 20.2605 19.0598ZM14.6545 17.1697C13.7151 16.6023 13.4695 16.4879 13.1709 16.7481C12.9007 16.9835 12.6246 17.3482 12.5806 17.4724C12.536 17.5972 12.5568 17.8861 12.446 18.0358C12.3351 18.1853 12.0705 18.5389 12.0698 18.5398C11.8344 18.8287 11.9374 18.8514 12.1894 19.1547C12.4261 19.4379 12.9474 19.0645 13.5504 19.541C13.8646 19.789 14.2269 20.6753 14.5058 21.0423C14.7023 19.7624 15.5066 18.7192 15.7537 18.3283C16.1445 17.7098 15.7958 17.859 14.6545 17.1697ZM17.7727 18.5212C17.7014 19.1274 17.5642 19.8706 17.4307 20.3138C17.2972 20.7571 17.6765 20.7169 17.8526 20.6462C18.0814 20.5543 18.5148 20.1647 18.7316 18.7804C18.4093 18.7046 18.0895 18.6178 17.7727 18.5212ZM25.4691 18.8919C25.2293 18.9188 24.9898 18.9546 24.7506 18.9908C25.0099 19.369 25.1585 19.7876 25.168 20.339C25.2465 20.3664 25.6043 20.2216 25.6848 19.9642C25.7651 19.7068 25.7498 19.4058 25.4691 18.8919ZM12.9786 17.8636C12.7023 17.4677 13.716 17.3559 13.7649 17.478C13.8137 17.6007 13.2573 18.2601 12.9786 17.8636ZM15.1788 10C16.6458 10 17.8349 11.1895 17.8349 12.6565C17.8349 14.1226 16.6459 15.3139 15.1788 15.3139C13.7118 15.3139 12.5223 14.1226 12.5223 12.6565C12.5223 11.1895 13.7119 10 15.1788 10ZM15.2512 10.6202C14.2783 10.6202 13.488 11.4092 13.488 12.3816C13.488 13.3545 14.2783 14.1425 15.2512 14.1425C16.2237 14.1425 17.0117 13.3545 17.0117 12.3816C17.0117 11.4092 16.2237 10.6202 15.2512 10.6202Z" fill="white"/>
</g>
<defs>
<clipPath id="clip0_819_3613">
<rect width="40" height="40" fill="white"/>
</clipPath>
</defs>
</svg>

<svg xmlns="http://www.w3.org/2000/svg" width="40" height="40" fill="none" viewBox="0 0 40 40"><g clip-path="url(#nvoon_svg-a)"><path fill="#CCD1E0" d="M20 0c11.046 0 20 8.954 20 20s-8.954 20-20 20S0 31.046 0 20 8.954 0 20 0"/><path fill="#001965" d="M26 6a8 8 0 0 1 8 8v12a8 8 0 0 1-8 8H14a8 8 0 0 1-8-8V14a8 8 0 0 1 8-8z"/><path fill="#fff" d="M11.768 13.955c0-.465.164-.442.278-.124.117.317.623 1.577 1.93 2.042s2.475.085 3.297-.594c.303-.251.408-.107.134.34-.36.584-.95.927-1.63 1.295-.143.078-.299.139.015.284 1.812.842 4.167 1.434 6.273 1.434 1.552 0 3.068-.238 3.866-.3.776-.059 2.23-.007 2.587 1.674.254 1.192.233 4.674.233 8.045 0 .23.012.376-.262.373-.857-.009-.894.027-.973.25-.128.361-.164.543-.26.912-.079.302-.137.412-.339.412h-1.084c-.164 0-.254-.203-.11-.462 1.38-2.49 1.28-4.426.466-5.484-.26.977-.37 1.409-.5 1.506-1.674 1.26-2.52 3.954-2.6 4.162s-.182.279-.439.279L21.454 30c-.335 0-.324-.255-.11-.482 1.861-1.979 2.333-2.73 2.876-4.407.548-1.694-.736-2.229-1.724-1.35-2.554-1.164-3.233.351-3.082 1.202.239 1.347 1.143 3.63 1.202 4.714.015.265-.222.322-.366.322h-1.14c-.353 0-.214-.335-.183-.484.576-2.769-.6-4.356-1.786-5.094-.708.518-1.643 3.552-1.755 5.202-.013.19-.11.375-.286.375-.149 0-1.069.003-1.314 0-.216-.002-.248-.239-.088-.526.675-1.211 1.736-3.122 1.715-5.14 0-.235 0-.928-.323-1.313-.723-.865-1.129-1.905-1.5-2.572-.257-.46-.584-.612-.844-.66-.264-.049-.477.03-.704-.076-.226-.107-.345-.342-.53-.547-.155-.171-.267-.416-.084-.648.321-.404.532-.638.59-.803.056-.164.043-.24.054-.38.01-.133.292-.464.547-.774.096-.116.015-.316-.158-.518-.174-.203-.693-.913-.693-2.086m16.077 7.605c-.054-.057-.143-.06-.15.019-.07.914-.264 2.016-.2 2.377.067.386.275 1.302.32 1.705.036.313.182.19.202.038.081-.623.218-3.728-.172-4.139m-10.56-3.198c-.657-.248-.686-.269-.85-.048-1.175 1.59-1.409 2.462-1.305 3.11.103.648.659 1.311 1.49 1.795.832.485 1.346.757 1.91 1.369.058.063.137.089.158-.048.29-1.874 1.869-2.146 3.924-2.109 2.893.052 3.447 1.003 3.803.845s.586-1.62.649-2.655.132-1.882-1.152-1.765c.303.623.367 1.308-.2 1.698s-.971.201-.971-.164c0-.337-.057-.852-.464-1.331-.195.026-.362.044-.558.062.119.563.268 1.597-.165 2.02s-1.645.464-2.898.365c-.24-.02-.535-.116-.663-.409-.065-.15-.158-.513-.19-2.104a13 13 0 0 1-.598-.109c-.228 1.535-.745 2.108-1.29 2.236-.544.129-1.163.008-1.052-.549.11-.549.371-1.146.422-2.209m2.976.698c.022.477.039 1.193.111 1.587.061.33.2.353.322.372.47.07 2.106.145 2.467-.222.229-.232.249-1.03.087-1.638-.996.064-1.998.03-2.988-.1m-5.606-1.89c-.94-.568-1.185-.682-1.484-.422-.27.235-.546.6-.59.724-.045.125-.024.414-.135.564-.11.15-.376.503-.376.504-.236.289-.133.311.12.615.236.283.757-.09 1.36.386.315.248.677 1.134.956 1.501.196-1.28 1-2.323 1.248-2.714.39-.618.042-.469-1.1-1.158m3.118 1.351c-.072.606-.209 1.35-.342 1.793s.245.403.422.332c.228-.092.662-.481.879-1.866a15 15 0 0 1-.96-.259m7.696.37q-.36.044-.718.1c.259.378.407.797.417 1.348.079.027.436-.117.517-.375.08-.257.065-.558-.216-1.072m-12.49-1.027c-.277-.396.737-.508.786-.386.049.123-.508.782-.786.386m2.2-7.864a2.656 2.656 0 1 1 0 5.313 2.656 2.656 0 0 1 0-5.313m.072.62a1.762 1.762 0 1 0-.002 3.52 1.762 1.762 0 0 0 .002-3.52"/></g><defs><clipPath id="nvoon_svg-a"><path fill="#fff" d="M0 0h40v40H0z"/></clipPath></defs></svg>
